icons/deploy.svg

<?xml version="1.0" encoding="UTF-8" standalone="no"?>
<svg width="512px" height="152px" viewBox="0 0 512 152" version="1.1" xmlns="http://www.w3.org/2000/svg" xmlns:xlink="http://www.w3.org/1999/xlink" preserveAspectRatio="xMidYMid">
    <defs>
        <path id="path-1" d="M329.216,66.3195986 L330.399656,65.8828387 L330.812559,64.6404588 C336.339957,48.0454194 351.312746,36.702509 368.344545,36.702509 C382.197907,36.702509 394.821735,44.1953262 402.046624,56.2869677 L402.569634,57.1604875 L403.511054,57.4541075 C409.845907,59.4342079 415.254022,63.8642007 418.654509,69.7971613 L419.217892,70.7807885 L420.282265,71.0468817 C429.876301,73.4545663 436.761692,82.4943943 436.761692,92.9894767 C436.761692,105.69405 426.259269,117.372789 414.608057,117.372789 L382.076789,117.372789 L382.076789,94.0226523 L393.812416,94.0226523 C396.045763,94.0226523 397.011039,92.4150824 395.970523,90.433147 C395.970523,90.433147 375.284989,59.3589677 371.614738,59.3589677 C367.944487,59.3589677 347.258953,90.433147 347.258953,90.433147 C346.220272,92.4132473 347.185548,94.0226523 349.417061,94.0226523 L360.950824,94.0226523 L360.950824,117.372789 L356.841978,117.372789 L351.624717,117.372789 L328.957247,117.448029 C316.801376,114.814624 310.136201,105.160029 310.136201,93.9015341 C310.136201,81.4630538 319.965133,69.7292616 329.216,66.3195986 L329.216,66.3195986 Z"></path>
    </defs>
	<g>
		<path d="M10.5813333,44.1567885 C17.6337204,36.1281147 26.609319,32.1146953 37.5062939,32.1146953 C47.8288746,32.1146953 56.2300789,36.1868387 62.7099068,44.3292903 L62.7099068,1.83512545 L89.7211183,1.83512545 L89.7211183,119.340043 L62.7099068,119.340043 L62.7099068,109.446882 C55.7712975,117.418667 47.3700932,121.432086 37.5062939,121.488975 C26.609319,121.488975 17.6355556,117.517763 10.5813333,109.575341 C3.52711111,101.634753 0,90.6662079 0,76.6733763 C0,63.0255484 3.52711111,52.1872975 10.5813333,44.1567885 L10.5813333,44.1567885 Z M443.727828,32.4303369 L463.169147,86.366509 L482.351713,32.4303369 L511.082437,32.4303369 L472.631054,129.635097 C469.476473,137.95005 464.960229,143.699498 459.082323,146.881606 C453.204416,150.063713 445.735455,151.77038 436.673606,151.999771 C431.972014,151.999771 428.0999,151.540989 425.060932,150.623427 L428.931211,126.451154 C430.823226,127.482495 433.060244,128.027527 435.64043,128.086251 C442.00648,128.086251 445.87676,126.509878 447.253104,123.355297 L449.231369,118.710595 L440.272287,95.9605448 C440.375054,95.0338065 440.428272,94.0997276 440.428272,93.1583082 C440.428272,85.5241864 437.049806,78.6094337 431.68757,74.1629247 L415.252186,32.4303369 L443.727828,32.4303369 L443.727828,32.4303369 Z M124.443527,65.3763441 L159.45405,65.3763441 C158.995269,61.878595 157.360172,58.7955842 154.550595,56.129147 C151.741018,53.4627097 147.496373,52.1285735 141.818495,52.1285735 C136.426896,52.1285735 132.327226,53.4333477 129.517649,56.0428961 C126.709907,58.6524444 125.017921,61.7629821 124.443527,65.3763441 L124.443527,65.3763441 Z M287.828416,0 L314.925878,0 L314.925878,73.230681 C310.018753,78.8571756 306.46595,86.366509 306.46595,94.1309247 C306.46595,101.88433 309.396645,108.925706 314.924043,113.704373 L314.924043,117.506753 L287.826581,117.506753 L287.826581,0 L287.828416,0 Z M27.6993835,74.8822939 C27.6993835,81.1052043 29.4629391,86.1224373 32.9900502,89.935828 C36.5171613,93.7492186 40.9765161,95.655914 46.3662796,95.655914 C49.2914695,95.655914 52.3157563,94.9255341 55.4409749,93.4629391 C58.5661935,92.0003441 60.9885591,90.1505376 62.7099068,87.9153548 L62.7099068,61.849233 C60.9316703,59.6122151 58.4946237,57.7917706 55.398767,56.3860645 C52.3010753,54.9803584 49.2914695,54.2793405 46.3662796,54.2793405 C40.8609032,54.2793405 36.3740215,56.1566738 32.9037993,59.9131756 C29.4335771,63.6696774 27.6993835,68.6593835 27.6993835,74.8822939 L27.6993835,74.8822939 Z M218.523068,87.9135197 C220.185692,90.1505376 222.565849,92.0003441 225.663541,93.4611039 C228.761233,94.9236989 231.770839,95.6540789 234.696029,95.6540789 C240.087627,95.6540789 244.559828,93.7767455 248.114466,90.0202437 C251.670939,86.2637419 253.447341,81.2024659 253.447341,74.8382509 C253.447341,68.5878136 251.683785,63.5981075 248.156674,59.8709677 C244.629563,56.143828 240.142681,54.2793405 234.694194,54.2793405 C231.769004,54.2793405 228.759398,55.0097204 225.661706,56.4723154 C222.564014,57.9349104 220.185692,59.7847168 218.521233,62.0198996 L218.521233,87.9135197 L218.523068,87.9135197 Z M96.7459785,74.8382509 C96.7459785,62.2786523 100.975943,51.712 109.434036,43.140129 C117.892129,34.5664229 128.688172,30.2795699 141.82033,30.2795699 C154.609319,30.2795699 165.060358,34.5957849 173.175283,43.2263799 C181.290208,51.8569749 185.34767,63.34119 185.34767,77.67719 L185.34767,83.8707384 L124.78853,83.8707384 C125.819871,87.9997706 128.157821,91.3543799 131.79871,93.9345663 C135.439599,96.5147527 140.214595,97.8048459 146.121864,97.8048459 C149.390222,97.8048459 153.075154,97.1313548 157.174824,95.7825376 C161.274495,94.4355556 164.500645,92.6995269 166.851441,90.5781219 L178.722867,108.384344 C174.593835,111.997706 169.33253,114.777921 162.937118,116.728659 C156.541706,118.679398 149.933419,119.653849 143.108588,119.653849 C129.747039,119.653849 118.679398,115.567025 109.903828,107.395211 C101.131928,99.225233 96.7459785,88.3723011 96.7459785,74.8382509 L96.7459785,74.8382509 Z M191.425606,149.935254 L191.425606,32.4303369 L218.523068,32.4303369 L218.523068,42.3234982 C225.118509,34.3517133 233.519713,30.3382939 243.726681,30.281405 C254.794323,30.281405 263.784602,34.2232545 270.693849,42.1087885 C277.604932,49.9943226 281.058638,60.9041434 281.058638,74.840086 C281.058638,88.9485305 277.588416,99.9446022 270.649806,107.830136 C263.711197,115.71567 254.735599,119.65752 243.724846,119.65752 C233.745434,119.65752 225.344229,115.585376 218.521233,107.442925 L218.521233,149.93709 L191.425606,149.93709 L191.425606,149.935254 Z" fill="#030000"></path>
		<mask id="mask-2" fill="white">
			<use xlink:href="#path-1"></use>
		</mask>
		<use fill="#9BC75D" xlink:href="#path-1"></use>
	</g>
</svg>

<svg xmlns="http://www.w3.org/2000/svg" xmlns:xlink="http://www.w3.org/1999/xlink" viewBox="0 0 511.082 152">
  <defs>
    <path id="a" d="m329.216 66.32 1.184-.437.413-1.243c5.527-16.595 20.5-27.937 37.532-27.937 13.853 0 26.477 7.492 33.702 19.584l.523.873.941.294c6.335 1.98 11.743 6.41 15.144 12.343l.563.984 1.064.266c9.594 2.408 16.48 11.447 16.48 21.942 0 12.705-10.503 24.384-22.154 24.384h-32.531v-23.35h11.735c2.234 0 3.199-1.608 2.159-3.59 0 0-20.686-31.074-24.356-31.074-3.67 0-24.356 31.074-24.356 31.074-1.039 1.98-.073 3.59 2.158 3.59h11.534v23.35h-9.326l-22.668.075c-12.156-2.633-18.82-12.288-18.82-23.547 0-12.438 9.828-24.172 19.079-27.581z"/>
  </defs>
  <path fill="#030000" d="M10.581 44.157c7.053-8.029 16.028-12.042 26.925-12.042 10.323 0 18.724 4.072 25.204 12.214V1.835H89.72V119.34H62.71v-9.893c-6.939 7.972-15.34 11.985-25.204 12.042-10.897 0-19.87-3.971-26.925-11.914C3.527 101.635 0 90.666 0 76.673c0-13.647 3.527-24.486 10.581-32.516zM443.728 32.43l19.441 53.937 19.183-53.937h28.73l-38.45 97.205c-3.156 8.315-7.672 14.065-13.55 17.247-5.878 3.182-13.347 4.888-22.408 5.118-4.702 0-8.574-.459-11.613-1.377l3.87-24.172c1.892 1.031 4.13 1.577 6.71 1.635 6.365 0 10.236-1.576 11.612-4.73l1.978-4.645-8.959-22.75c.103-.927.156-1.861.156-2.803 0-7.634-3.378-14.549-8.74-18.995L415.252 32.43zM124.444 65.376h35.01c-.459-3.497-2.094-6.58-4.903-9.247-2.81-2.666-7.055-4-12.733-4-5.391 0-9.49 1.304-12.3 3.914-2.808 2.61-4.5 5.72-5.074 9.333zM287.828 0h27.098v73.23c-4.907 5.627-8.46 13.137-8.46 20.9 0 7.754 2.93 14.796 8.458 19.574v3.803h-27.097V0zM27.7 74.882c0 6.223 1.764 11.24 5.291 15.054 3.527 3.813 7.987 5.72 13.376 5.72 2.925 0 5.95-.73 9.075-2.193 3.125-1.463 5.548-3.312 7.269-5.548V61.85c-1.778-2.237-4.215-4.057-7.311-5.463-3.098-1.406-6.108-2.107-9.033-2.107-5.505 0-9.992 1.878-13.462 5.634-3.47 3.757-5.205 8.746-5.205 14.97zm190.824 13.032c1.663 2.237 4.043 4.086 7.14 5.547 3.098 1.463 6.108 2.193 9.033 2.193 5.392 0 9.864-1.877 13.418-5.634 3.557-3.756 5.333-8.818 5.333-15.182 0-6.25-1.763-11.24-5.29-14.967-3.527-3.727-8.014-5.592-13.463-5.592-2.925 0-5.935.73-9.032 2.193-3.098 1.463-5.476 3.313-7.14 5.548v25.894zM96.746 74.838c0-12.56 4.23-23.126 12.688-31.698 8.458-8.574 19.254-12.86 32.386-12.86 12.79 0 23.24 4.316 31.355 12.946 8.115 8.631 12.173 20.115 12.173 34.451v6.194h-60.56c1.032 4.129 3.37 7.483 7.01 10.064 3.642 2.58 8.417 3.87 14.324 3.87 3.268 0 6.953-.674 11.053-2.022 4.1-1.347 7.326-3.083 9.676-5.205l11.872 17.806c-4.13 3.614-9.39 6.394-15.786 8.345-6.395 1.95-13.004 2.925-19.828 2.925-13.362 0-24.43-4.087-33.205-12.259-8.772-8.17-13.158-19.023-13.158-32.557zm94.68 75.097V32.43h27.097v9.893c6.596-7.971 14.997-11.985 25.204-12.042 11.067 0 20.058 3.942 26.967 11.828 6.91 7.885 10.365 18.795 10.365 32.731 0 14.109-3.47 25.105-10.41 32.99-6.938 7.886-15.913 11.828-26.924 11.828-9.98 0-18.38-4.073-25.204-12.215v42.494h-27.095z"/>
  <use width="100%" height="100%" fill="#9bc75d" xlink:href="#a"/>
</svg>
